X:1
T:Title
%%score ( 1 2 ) { 3 | 4 }
L:1/8
Q:1/4=95
M:6/8
K:C
V:1 treble nm="Grand Piano, Soprano"
V:2 treble 
V:3 bass nm="Choir Pad, Go Tell It"
V:4 bass 
V:1
 [CE][DF][EG] [Ec][FB][Gc] | [Fd]2 [Fd] [FA]2 c | B3 .F3 | G3 .E3 | [CE][EG][Ec] [Ge][Gd][Gc] | %5
w: By~John~P.~Hills * * * * *|||||
 [GB]>[GB][Gc] [Gd]2 [Gd] | [^Fd]>[Fc][FB] [FA]2 [FB] | G6 | [Fd]>[Fd][Fd] [Fd][FA][FB] | %9
w: ||||
 [Ec]2 [_EA] [=EG]3 | [Fd]>[Fd][Fd] [Fd][FA][FB] | [Ec]2 [_EA] [=EG]3 | %12
w: |||
 [CE]>[CE][DF] [EG][DF][CE] | .A3 z3 | [Ge]>[Fd][Ec] [Fd]2 [FB] | [Ec]6- | [Ec]3 z3 |] %17
w: |||||
V:2
 x6 | x6 | z2 F DDA | z2 E C .C2 | x6 | x6 | x6 | x6 | x6 | x6 | x6 | x6 | x6 | CF[FB] [Gc]2 [Ad] | %14
 x6 | x6 | x6 |] %17
V:3
 G,G,C G,G,C | A,2 A,[K:treble] .D3 | z2 D B, .B,2 | z2 C[K:bass] G, .G,2 | G,CG,[K:treble] CB,C | %5
 D>D[K:bass]A, B,2 B, | A,>E[K:treble]D C2 D | B,6 | B,>[K:bass]B,B, B,CD | C2 C C3 | %10
 B,>B,B, B,CD | C2 C C3 | G,>G,G, CG,G, | F,[K:treble]CD C2 C | C>[K:bass]B,C B,2 G, | G,6- | %16
 G,3 z3 |] %17
V:4
 C,C,C, C,D,E, | F,2 F, .F,3 | z2 G, G, .G,2 | z2 C, C, .C,2 | C,C,C, C,D,E, | G,>G,G, G,2 G, | %6
 D,>D,D, D,2 D, | G,6 | G,>G,G, G,G,G, | C,2 C, C,3 | G,>G,G, G,G,G, | C,2 C, C,3 | %12
 C,>C,C, C,C,C, | z2 D, E,2 F, | G,>G,G, G,,2 G,, | C,6- | C,3 z3 |] %17

